static/icons/basic/clock.svg

<svg width="26" height="30" viewBox="0 0 26 30" fill="none" xmlns="http://www.w3.org/2000/svg">
<path d="M13.0003 11.6667V17.0001L16.3337 19.0001M13.0003 5.66675C6.7411 5.66675 1.66699 10.7409 1.66699 17.0001C1.66699 23.2593 6.7411 28.3334 13.0003 28.3334C19.2596 28.3334 24.3337 23.2593 24.3337 17.0001C24.3337 10.7409 19.2596 5.66675 13.0003 5.66675ZM13.0003 5.66675V1.66675M10.3337 1.66675H15.667M24.1056 6.45614L22.1056 4.45614L23.1056 5.45614M1.89502 6.45614L3.89502 4.45614L2.89502 5.45614" stroke="#121315" stroke-width="2.66667" stroke-linecap="round" stroke-linejoin="round"/>
</svg>

<svg xmlns="http://www.w3.org/2000/svg" width="26" height="30" fill="none"><path stroke="#121315" stroke-linecap="round" stroke-linejoin="round" stroke-width="2.667" d="M13 11.667V17l3.334 2M13 5.667C6.741 5.667 1.667 10.74 1.667 17c0 6.26 5.074 11.333 11.333 11.333 6.26 0 11.334-5.074 11.334-11.333 0-6.26-5.074-11.333-11.334-11.333m0 0v-4m-2.666 0h5.333m8.439 4.79-2-2 1 1m-21.211 1 2-2-1 1"/></svg>
